img/ic-house.svg

<svg width="72" height="72" viewBox="0 0 72 72" fill="none" xmlns="http://www.w3.org/2000/svg">
<path fill-rule="evenodd" clip-rule="evenodd" d="M43.656 65.033H27.656V41.21H43.656V65.033ZM40.718 44.134H30.593V62.11H40.718V44.134Z" fill="#81B3D2"/>
<path fill-rule="evenodd" clip-rule="evenodd" d="M68.915 37.253L71 35.185L63.0579 27.32V0H49.1863V13.567L35.5005 0L0 35.185L2.08596 37.253L7.94312 31.458V69.076H3.98914V72H68.1397V69.076H63.0589V31.458L68.915 37.253ZM60.002 69.076H10.999V28.534L35.5 4.149L60.002 28.534V69.076ZM52.064 16.492L60.002 24.394V2.924H52.064V16.492Z" fill="#81B3D2"/>
<path fill-rule="evenodd" clip-rule="evenodd" d="M35.656 34.7929C31.376 34.7929 27.906 31.3409 27.906 27.0799C27.906 22.8209 31.375 19.3669 35.656 19.3669C39.935 19.3669 43.406 22.8209 43.406 27.0799C43.406 31.3409 39.935 34.7929 35.656 34.7929ZM40.625 27.0799C40.625 24.3489 38.4 22.1349 35.656 22.1349C32.911 22.1349 30.686 24.3489 30.686 27.0799C30.686 29.8119 32.91 32.0279 35.656 32.0279C38.4 32.0279 40.625 29.8119 40.625 27.0799ZM15.061 41.2099H18.061V45.1289H15.061V41.2099ZM23.999 41.2099H20.999V45.1289H23.999V41.2099ZM15.061 47.1819H18.061V51.1009H15.061V47.1819ZM23.999 47.1819H20.999V51.1009H23.999V47.1819ZM46.998 41.2099H49.998V45.1289H46.998V41.2099ZM55.936 41.2099H52.936V45.1289H55.936V41.2099ZM46.998 47.1819H49.998V51.1009H46.998V47.1819ZM55.936 47.1819H52.936V51.1009H55.936V47.1819Z" fill="#81B3D2"/>
</svg>

<svg xmlns="http://www.w3.org/2000/svg" width="72" height="72" fill="none"><path fill="#81B3D2" fill-rule="evenodd" d="M43.656 65.033h-16V41.21h16v23.823Zm-2.938-20.899H30.593V62.11h10.125V44.134Z" clip-rule="evenodd"/><path fill="#81B3D2" fill-rule="evenodd" d="M68.915 37.253 71 35.185l-7.942-7.865V0H49.186v13.567L35.501 0 0 35.185l2.086 2.068 5.857-5.795v37.618H3.99V72h64.15v-2.924h-5.08V31.458l5.856 5.795Zm-8.913 31.823H10.999V28.534L35.5 4.149l24.502 24.385v40.542Zm-7.938-52.584 7.938 7.902V2.924h-7.938v13.568Z" clip-rule="evenodd"/><path fill="#81B3D2" fill-rule="evenodd" d="M35.656 34.793c-4.28 0-7.75-3.452-7.75-7.713 0-4.26 3.469-7.713 7.75-7.713 4.279 0 7.75 3.454 7.75 7.713 0 4.26-3.471 7.713-7.75 7.713Zm4.969-7.713c0-2.731-2.225-4.945-4.969-4.945-2.745 0-4.97 2.214-4.97 4.945 0 2.732 2.224 4.948 4.97 4.948 2.744 0 4.969-2.216 4.969-4.948ZM15.061 41.21h3v3.919h-3v-3.92Zm8.938 0h-3v3.919h3v-3.92Zm-8.938 5.972h3V51.1h-3v-3.92Zm8.938 0h-3V51.1h3v-3.92Zm22.999-5.972h3v3.919h-3v-3.92Zm8.938 0h-3v3.919h3v-3.92Zm-8.938 5.972h3V51.1h-3v-3.92Zm8.938 0h-3V51.1h3v-3.92Z" clip-rule="evenodd"/></svg>
